image/icon/OrcStronghold.svg

<!--version="1.0" encoding="UTF-8"--><svg version="1.1" id="Layer_1" xmlns="http://www.w3.org/2000/svg" width="42" height="39" xml:space="preserve"><g id="PathID_65" transform="matrix(1, 0, 0, 1, 21, 19.2)"><path style="fill: rgb(255, 255, 255); fill-opacity: 1;" d="M14.8-.5q4.25 6.15 4.45 13.3l-1.3.5-.6-3.4q-1-4.05-2.9-7.5-2.85-5.25-8.4-8.6l-5-2.35v3.85l4 1.4q4.55 2.1 7 5.7 2.5 3.55 4 7.65L17 13.4 3.95 16.6q-.3-5.1-3.95-9.75-3.65 4.65-3.95 9.75L-17 13.4l1-3.35q1.45-4.1 3.95-7.65 2.45-3.6 7-5.7 2.25-1.05 4-1.4v-3.85Q-3.25-7.9-6-6.2q-5.55 3.35-8.45 8.6-1.85 3.45-2.9 7.5l-.65 3.4-1.25-.5q.2-7.2 4.45-13.3Q-10-7.45-1.05-11.25v-.9L0-14.6l1.05 2.45v.9Q9.95-7.45 14.8-.5M-9.8 5.95h4.3l-2.15-3.1-2.15 3.1m19.55 0-2.1-3.1-2.15 3.1h4.25"/><path style="fill: rgb(0, 0, 0); fill-opacity: 1;" d="M1.05-11.25v-.9L0-14.6l-1.05 2.45v.9Q-10-7.45-14.8-.5q-4.25 6.1-4.45 13.3l1.25.5.65-3.4q1.05-4.05 2.9-7.5 2.9-5.25 8.45-8.6 2.75-1.7 4.95-2.35v3.85q-1.75.35-4 1.4-4.55 2.1-7 5.7-2.5 3.55-3.95 7.65l-1 3.35 13.05 3.2q.3-5.1 3.95-9.75 3.65 4.65 3.95 9.75L17 13.4l-.95-3.35q-1.5-4.1-4-7.65-2.45-3.6-7-5.7l-4-1.4v-3.85l5 2.35q5.55 3.35 8.4 8.6 1.9 3.45 2.9 7.5l.6 3.4 1.3-.5q-.2-7.15-4.45-13.3Q9.95-7.45 1.05-11.25m14.8 8.9q4.85 6.7 5.1 14.85l.05 1.6L.1 19.2-21 14.1l.05-1.6q.25-8.15 5.05-14.85 4.8-6.7 13.15-10.55l2.7-6.3 2.7 6.3Q11-9.05 15.85-2.35m-23.5 5.2 2.15 3.1h-4.3l2.15-3.1M5.5 5.95l2.15-3.1 2.1 3.1H5.5"/></g></svg>

<?xml version="1.0" encoding="UTF-8"?>
<svg version="1.1" id="Layer_1" xmlns="http://www.w3.org/2000/svg" xmlns:xlink="http://www.w3.org/1999/xlink" width="42px" height="39px" xml:space="preserve">
<g id="PathID_65" transform="matrix(1, 0, 0, 1, 21, 19.2)">
<path style="fill:#FFFFFF;fill-opacity:1" d="M14.8 -0.5Q19.05 5.65 19.25 12.8L17.95 13.3L17.35 9.9Q16.35 5.85 14.45 2.4Q11.6 -2.85 6.05 -6.2L1.05 -8.55L1.05 -4.7L5.05 -3.3Q9.6 -1.2 12.05 2.4Q14.55 5.95 16.05 10.05L17 13.4L3.95 16.6Q3.65 11.5 0 6.85Q-3.65 11.5 -3.95 16.6L-17 13.4L-16 10.05Q-14.55 5.95 -12.05 2.4Q-9.6 -1.2 -5.05 -3.3Q-2.8 -4.35 -1.05 -4.7L-1.05 -8.55Q-3.25 -7.9 -6 -6.2Q-11.55 -2.85 -14.45 2.4Q-16.3 5.85 -17.35 9.9L-18 13.3L-19.25 12.8Q-19.05 5.6 -14.8 -0.5Q-10 -7.45 -1.05 -11.25L-1.05 -12.15L0 -14.6L1.05 -12.15L1.05 -11.25Q9.95 -7.45 14.8 -0.5M-9.8 5.95L-5.5 5.95L-7.65 2.85L-9.8 5.95M9.75 5.95L7.65 2.85L5.5 5.95L9.75 5.95"/>
<path style="fill:#000000;fill-opacity:1" d="M1.05 -11.25L1.05 -12.15L0 -14.6L-1.05 -12.15L-1.05 -11.25Q-10 -7.45 -14.8 -0.5Q-19.05 5.6 -19.25 12.8L-18 13.3L-17.35 9.9Q-16.3 5.85 -14.45 2.4Q-11.55 -2.85 -6 -6.2Q-3.25 -7.9 -1.05 -8.55L-1.05 -4.7Q-2.8 -4.35 -5.05 -3.3Q-9.6 -1.2 -12.05 2.4Q-14.55 5.95 -16 10.05L-17 13.4L-3.95 16.6Q-3.65 11.5 0 6.85Q3.65 11.5 3.95 16.6L17 13.4L16.05 10.05Q14.55 5.95 12.05 2.4Q9.6 -1.2 5.05 -3.3L1.05 -4.7L1.05 -8.55L6.05 -6.2Q11.6 -2.85 14.45 2.4Q16.35 5.85 17.35 9.9L17.95 13.3L19.25 12.8Q19.05 5.65 14.8 -0.5Q9.95 -7.45 1.05 -11.25M15.85 -2.35Q20.7 4.35 20.95 12.5L21 14.1L0.1 19.2L-21 14.1L-20.95 12.5Q-20.7 4.35 -15.9 -2.35Q-11.1 -9.05 -2.75 -12.9L-0.05 -19.2L2.65 -12.9Q11 -9.05 15.85 -2.35M-7.65 2.85L-5.5 5.95L-9.8 5.95L-7.65 2.85M5.5 5.95L7.65 2.85L9.75 5.95L5.5 5.95"/>
</g>
</svg>
